humanity-icon-theme/Humanity/status/24/task-due.svg

<?xml version="1.0" encoding="UTF-8" standalone="no"?>
<!-- Created with Inkscape (http://www.inkscape.org/) -->

<svg
   xmlns:svg="http://www.w3.org/2000/svg"
   xmlns="http://www.w3.org/2000/svg"
   xmlns:xlink="http://www.w3.org/1999/xlink"
   version="1.0"
   width="24"
   height="24"
   id="svg2">
  <defs
     id="defs4">
    <linearGradient
       id="linearGradient3618">
      <stop
         id="stop3620"
         style="stop-color:#a68b60;stop-opacity:1"
         offset="0" />
      <stop
         id="stop3622"
         style="stop-color:#9b784b;stop-opacity:1"
         offset="1" />
    </linearGradient>
    <linearGradient
       id="linearGradient3600">
      <stop
         id="stop3602"
         style="stop-color:#f4f4f4;stop-opacity:1"
         offset="0" />
      <stop
         id="stop3604"
         style="stop-color:#dbdbdb;stop-opacity:1"
         offset="1" />
    </linearGradient>
    <linearGradient
       id="linearGradient3931">
      <stop
         id="stop3933"
         style="stop-color:#787a75;stop-opacity:1"
         offset="0" />
      <stop
         id="stop3935"
         style="stop-color:#cbcbcb;stop-opacity:1"
         offset="1" />
    </linearGradient>
    <linearGradient
       x1="25.132275"
       y1="6.7287393"
       x2="25.132275"
       y2="47.013336"
       id="linearGradient2990"
       xlink:href="#linearGradient3600"
       gradientUnits="userSpaceOnUse"
       gradientTransform="matrix(0.51430915,0,0,0.46668502,-1.8438505,-1.2000089)" />
    <linearGradient
       x1="-56.332626"
       y1="17.518156"
       x2="-47.635506"
       y2="-0.10105596"
       id="linearGradient2992"
       xlink:href="#linearGradient3931"
       gradientUnits="userSpaceOnUse"
       gradientTransform="matrix(0.41530302,0,0,0.43674775,28.711374,-1.7201205)" />
    <linearGradient
       x1="25.132275"
       y1="6.7287393"
       x2="25.132275"
       y2="47.013336"
       id="linearGradient2906"
       xlink:href="#linearGradient3618"
       gradientUnits="userSpaceOnUse"
       gradientTransform="matrix(0.51430915,0,0,0.46668502,-4.8438505,-3.2000094)" />
    <linearGradient
       id="linearGradient3269">
      <stop
         id="stop3271"
         style="stop-color:#787878;stop-opacity:1"
         offset="0" />
      <stop
         id="stop3273"
         style="stop-color:#bebebe;stop-opacity:1"
         offset="0.34446934" />
      <stop
         id="stop3275"
         style="stop-color:#c8c8c8;stop-opacity:1"
         offset="0.3731544" />
      <stop
         id="stop3277"
         style="stop-color:#e6e6e6;stop-opacity:1"
         offset="0.48990577" />
      <stop
         id="stop3279"
         style="stop-color:#8c8c8c;stop-opacity:1"
         offset="1" />
    </linearGradient>
    <linearGradient
       id="linearGradient3257">
      <stop
         id="stop3261"
         style="stop-color:#787878;stop-opacity:1"
         offset="0" />
      <stop
         id="stop3263"
         style="stop-color:#828282;stop-opacity:1"
         offset="0.36563665" />
      <stop
         id="stop3267"
         style="stop-color:#464646;stop-opacity:1"
         offset="1" />
    </linearGradient>
    <linearGradient
       x1="321.57819"
       y1="86.050087"
       x2="321.57819"
       y2="96.245491"
       id="linearGradient2933"
       xlink:href="#linearGradient3269"
       gradientUnits="userSpaceOnUse"
       gradientTransform="matrix(0.41034562,0,0,0.51289447,-118.98983,-42.965034)" />
    <linearGradient
       x1="22.451862"
       y1="30.049623"
       x2="22.451862"
       y2="40.185558"
       id="linearGradient2935"
       xlink:href="#linearGradient3257"
       gradientUnits="userSpaceOnUse"
       gradientTransform="matrix(0.41182453,0,0,0.51282072,2.4498032,-14.240488)" />
  </defs>
  <path
     d="M 3.4995695,3.5004305 20.5,3.5004305 20.5,22.5 3.5,22.5 3.4995695,3.5004305 z"
     id="path2904"
     style="fill:url(#linearGradient2906);fill-opacity:1;stroke:#9d7d53;stroke-width:0.99913901;stroke-linecap:butt;stroke-linejoin:round;stroke-miterlimit:4;stroke-opacity:1;stroke-dasharray:none;stroke-dashoffset:0;display:inline" />
  <path
     d="m 4.4995695,4.5004305 15.0004305,0 0,16.9995695 -15.0004305,0 0,-16.9995695 z"
     id="path3624"
     style="opacity:0.2;fill:none;stroke:#ffffff;stroke-width:0.99913901;stroke-linecap:butt;stroke-linejoin:round;stroke-miterlimit:4;stroke-opacity:1;stroke-dasharray:none;stroke-dashoffset:0;display:inline" />
  <path
     d="M 6.4995695,4.5 17.5,4.5 l 0,15 -11.0004305,0 0,-15 z"
     id="rect2594"
     style="fill:url(#linearGradient2990);fill-opacity:1;stroke:url(#linearGradient2992);stroke-width:0.99913901;stroke-linecap:butt;stroke-linejoin:round;stroke-miterlimit:4;stroke-opacity:1;stroke-dasharray:none;stroke-dashoffset:0;display:inline" />
  <path
     d="M 10.49957,1.5004305 C 10.552497,3.3406563 10.450412,4.446876 9.4995695,4.4777 l 0,1.02579 5.0000005,0 0,-1.02579 c -1.078008,-0.023242 -0.976021,-1.1424775 -1,-2.9772695 l -3,0 z"
     id="path4675"
     style="fill:url(#linearGradient2933);fill-opacity:1;stroke:url(#linearGradient2935);stroke-width:0.99827468;stroke-linecap:round;stroke-linejoin:round;stroke-miterlimit:4;stroke-opacity:1;stroke-dasharray:none;stroke-dashoffset:0.50000001;display:inline;enable-background:new" />
  <path
     d="m 11.069604,7.3158962 c 0.232857,2.189631 0.499582,4.3641918 0.697802,6.5623998 0.199372,0 0.433212,0 0.632584,0 0.164418,-2.110977 0.429616,-4.2091968 0.620921,-6.3175567 C 13.118431,7.0615094 12.852165,6.4687676 12.304537,6.3474771 11.7634,6.1951733 11.158815,6.5723256 11.08686,7.1110573 11.07493,7.1786863 11.0696,7.2473241 11.0696,7.3158962 l -10e-7,0 z m -0.06901,8.9024218 c -0.02462,0.65177 0.720357,1.162693 1.356425,0.956057 0.616079,-0.15136 0.940577,-0.89678 0.624836,-1.426644 C 12.699212,15.2 11.870377,15.019533 11.393588,15.438734 c -0.241009,0.19061 -0.400752,0.475165 -0.392994,0.779585 l 0,-1e-6 z"
     id="path3295"
     style="font-size:62.4582634px;font-style:normal;font-variant:normal;font-weight:normal;font-stretch:normal;text-align:start;line-height:125%;writing-mode:lr-tb;text-anchor:start;opacity:0.2;fill:#000000;fill-opacity:1;stroke:none;font-family:Georgia" />
  <path
     d="m 11.069599,8.0950009 c 0.232857,2.1896311 0.499587,3.6477741 0.697807,5.8459821 0.199372,0 0.433212,0 0.632584,0 0.164418,-2.110977 0.429616,-3.49278 0.620921,-5.601139 C 13.118431,7.8406142 12.852165,7.2478725 12.304537,7.1265819 11.7634,6.9742782 11.158815,7.3514303 11.08686,7.8901621 11.07493,7.9577911 11.0696,8.0264288 11.0696,8.0950009 l -10e-7,0 z m -0.06901,8.9024221 c -0.02462,0.65177 0.720357,1.162693 1.356425,0.956057 0.616079,-0.151361 0.940577,-0.89678 0.624836,-1.426644 -0.282643,-0.54773 -1.111478,-0.728197 -1.588267,-0.308996 -0.241009,0.190609 -0.400752,0.475164 -0.392994,0.779584 l 0,-10e-7 z"
     id="text2315"
     style="font-size:62.4582634px;font-style:normal;font-variant:normal;font-weight:normal;font-stretch:normal;text-align:start;line-height:125%;writing-mode:lr-tb;text-anchor:start;fill:#1f4b6a;fill-opacity:1;stroke:none;font-family:Georgia" />
</svg>

<?xml version="1.0" encoding="UTF-8" standalone="no"?>
<!-- Created with Inkscape (http://www.inkscape.org/) -->
<svg id="svg2" xmlns="http://www.w3.org/2000/svg" height="24" width="24" version="1.0" xmlns:xlink="http://www.w3.org/1999/xlink">
 <defs id="defs4">
  <linearGradient id="linearGradient2990" y2="47.013" gradientUnits="userSpaceOnUse" x2="25.132" gradientTransform="matrix(.51431 0 0 .46669 -1.8439 -1.2)" y1="6.7287" x1="25.132">
   <stop id="stop3602" style="stop-color:#f4f4f4" offset="0"/>
   <stop id="stop3604" style="stop-color:#dbdbdb" offset="1"/>
  </linearGradient>
  <linearGradient id="linearGradient2992" y2="-.10106" gradientUnits="userSpaceOnUse" x2="-47.636" gradientTransform="matrix(.41530 0 0 .43675 28.711 -1.7201)" y1="17.518" x1="-56.333">
   <stop id="stop3933" style="stop-color:#787a75" offset="0"/>
   <stop id="stop3935" style="stop-color:#cbcbcb" offset="1"/>
  </linearGradient>
  <linearGradient id="linearGradient2906" y2="47.013" gradientUnits="userSpaceOnUse" x2="25.132" gradientTransform="matrix(.51431 0 0 .46669 -4.8439 -3.2)" y1="6.7287" x1="25.132">
   <stop id="stop3620" style="stop-color:#a68b60" offset="0"/>
   <stop id="stop3622" style="stop-color:#9b784b" offset="1"/>
  </linearGradient>
  <linearGradient id="linearGradient2933" y2="96.245" gradientUnits="userSpaceOnUse" x2="321.58" gradientTransform="matrix(.41035 0 0 .51289 -118.99 -42.965)" y1="86.05" x1="321.58">
   <stop id="stop3271" style="stop-color:#787878" offset="0"/>
   <stop id="stop3273" style="stop-color:#bebebe" offset=".34447"/>
   <stop id="stop3275" style="stop-color:#c8c8c8" offset=".37315"/>
   <stop id="stop3277" style="stop-color:#e6e6e6" offset=".48991"/>
   <stop id="stop3279" style="stop-color:#8c8c8c" offset="1"/>
  </linearGradient>
  <linearGradient id="linearGradient2935" y2="40.186" gradientUnits="userSpaceOnUse" x2="22.452" gradientTransform="matrix(.41182 0 0 .51282 2.4498 -14.24)" y1="30.05" x1="22.452">
   <stop id="stop3261" style="stop-color:#787878" offset="0"/>
   <stop id="stop3263" style="stop-color:#828282" offset=".36564"/>
   <stop id="stop3267" style="stop-color:#464646" offset="1"/>
  </linearGradient>
 </defs>
 <path id="path2904" style="stroke-linejoin:round;stroke:#9d7d53;stroke-width:.99914;fill:url(#linearGradient2906)" d="m3.4996 3.5004h17v19h-17l-0.0004-19z"/>
 <path id="path3624" style="opacity:.2;stroke-linejoin:round;stroke:#fff;stroke-width:.99914;fill:none" d="m4.4996 4.5004h15v17h-15v-17z"/>
 <path id="rect2594" style="stroke-linejoin:round;stroke:url(#linearGradient2992);stroke-width:.99914;fill:url(#linearGradient2990)" d="m6.4996 4.5h11v15h-11v-15z"/>
 <path id="path4675" style="stroke-linejoin:round;stroke-width:.99827;stroke-dashoffset:0.5;stroke:url(#linearGradient2935);stroke-linecap:round;enable-background:new;fill:url(#linearGradient2933)" d="m10.5 1.5004c0.052 1.8403-0.05 2.9465-1.0004 2.9773v1.0258h5v-1.0258c-1.078-0.023242-0.97602-1.1425-1-2.9773h-3z"/>
 <path id="path3295" style="opacity:.2" d="m11.07 7.3159c0.23286 2.1896 0.49958 4.3642 0.6978 6.5624h0.63258c0.16442-2.111 0.42962-4.2092 0.62092-6.3176 0.097-0.4992-0.169-1.0919-0.716-1.2132-0.542-0.1523-1.146 0.2248-1.218 0.7636-0.012 0.0676-0.017 0.1362-0.017 0.2048h-0.000001zm-0.06901 8.9024c-0.02462 0.65177 0.72036 1.1627 1.3564 0.95606 0.61608-0.15136 0.94058-0.89678 0.62484-1.4266-0.283-0.547-1.112-0.727-1.588-0.308-0.24101 0.19061-0.40075 0.47516-0.39299 0.77958v-0.000001z"/>
 <path id="text2315" style="fill:#1f4b6a" d="m11.07 8.095c0.23286 2.1896 0.49959 3.6478 0.69781 5.846h0.63258c0.16442-2.111 0.42962-3.4928 0.62092-5.6011 0.097-0.4993-0.169-1.092-0.716-1.2133-0.542-0.1523-1.146 0.2248-1.218 0.7636-0.012 0.0676-0.017 0.1362-0.017 0.2048h-0.000001zm-0.06901 8.9024c-0.02462 0.65177 0.72036 1.1627 1.3564 0.95606 0.61608-0.15136 0.94058-0.89678 0.62484-1.4266-0.28264-0.54773-1.1115-0.7282-1.5883-0.309-0.24101 0.19061-0.40075 0.47516-0.39299 0.77958v-0.000001z"/>
</svg>
